tab.svg

<svg fill="currentColor" viewBox="0 0 24 24"><path d="M21 3H3a2 2 0 0 0-2 2v14a2 2 0 0 0 2 2h18a2 2 0 0 0 2-2V5a2 2 0 0 0-2-2m0 16H3V5h10v4h8z"/></svg>

<svg  viewBox="0 0 24 24" fill="currentColor"><path  d="M21,3H3A2,2 0 0,0 1,5V19A2,2 0 0,0 3,21H21A2,2 0 0,0 23,19V5A2,2 0 0,0 21,3M21,19H3V5H13V9H21V19Z"/></svg>
